storage/app/icons/phosphoricons/light/cards-three-light.svg

<svg xmlns="http://www.w3.org/2000/svg" fill="currentColor" viewBox="0 0 256 256"><path d="M208 90H48a14 14 0 0 0-14 14v96a14 14 0 0 0 14 14h160a14 14 0 0 0 14-14v-96a14 14 0 0 0-14-14m2 110a2 2 0 0 1-2 2H48a2 2 0 0 1-2-2v-96a2 2 0 0 1 2-2h160a2 2 0 0 1 2 2ZM50 64a6 6 0 0 1 6-6h144a6 6 0 0 1 0 12H56a6 6 0 0 1-6-6m16-32a6 6 0 0 1 6-6h112a6 6 0 0 1 0 12H72a6 6 0 0 1-6-6"/></svg>

<svg xmlns="http://www.w3.org/2000/svg" viewBox="0 0 256 256" fill="currentColor"><path d="M208,90H48a14,14,0,0,0-14,14v96a14,14,0,0,0,14,14H208a14,14,0,0,0,14-14V104A14,14,0,0,0,208,90Zm2,110a2,2,0,0,1-2,2H48a2,2,0,0,1-2-2V104a2,2,0,0,1,2-2H208a2,2,0,0,1,2,2ZM50,64a6,6,0,0,1,6-6H200a6,6,0,0,1,0,12H56A6,6,0,0,1,50,64ZM66,32a6,6,0,0,1,6-6H184a6,6,0,0,1,0,12H72A6,6,0,0,1,66,32Z"/></svg>
